images/banner-mobile.svg

<svg viewBox="0 0 345 234" fill="none" 
    xmlns="http://www.w3.org/2000/svg">
    <g clip-path="url(#clip0)">
        <rect width="345" height="233.094" fill="#292984"/>
        <path d="M-41.8955 4.59123C-140.683 -106 -419 24 -477 -40.6682L-488.409 330.41L909 169L901 -16C768 184 738.807 12.03 678 39C634.211 58.4219 618.583 74.5486 507.174 -8.95128C347 -129 309 23.9998 213 105C108.233 193.397 7.29419 59.6582 -41.8955 4.59123Z" fill="url(#paint0_linear)"/>
        <path d="M-421 84C-270 167 -246.464 -43.7883 -114.999 43.7431C-26.0001 103 27.9213 279.311 112 172C188 74.9999 236 -50.0001 360.144 43.7431C413.887 84.3249 472 82 535 -10.0001C619.697 -133.684 661 86.7431 736 43.7432" stroke="#373798" stroke-width="3"/>
        <path d="M-422 92C-264 202 -254 30.0003 -131 99.0003C-38.3262 150.988 33.9208 295.311 117.999 188C193.999 91.0001 253.999 30.0002 360.144 83.7434C409.999 108.987 475.671 130.912 549 53C645 -49 674 160 779 13" stroke="#5454B0" stroke-width="3"/>
        <path d="M-422 131.958C-264 241.958 -300 92.9579 -185 131.958C-86.9519 165.209 33.9206 335.269 117.999 227.958C193.999 130.958 255 96.0421 317 118C368.688 136.306 434.745 198.659 527 141C631 76 695 214.958 770 171.958" stroke="#1A1A6F" stroke-width="3"/>
        <path d="M-421 70.0002C-270 153 -246.463 -127.531 -114.999 -39.9997C-25.9999 19.257 47.62 263.372 112 142C173 27 219.316 -137.237 360.144 -17.9998C444 53 484 40 529 -45.9999C598.963 -179.707 696 57.9999 771 15" stroke="#262691" stroke-width="3"/>
    </g>
    <defs>
        <linearGradient id="paint0_linear" x1="-179.076" y1="-19.0002" x2="-232.721" y2="221.01" gradientUnits="userSpaceOnUse">
            <stop stop-color="#1F1F76"/>
            <stop offset="1" stop-color="#1F1F76" stop-opacity="0"/>
        </linearGradient>
        <clipPath id="clip0">
            <rect width="345" height="233.094" fill="white"/>
        </clipPath>
    </defs>
</svg>

<svg viewBox="0 0 345 234" fill="none" xmlns="http://www.w3.org/2000/svg"><g clip-path="url(#clip0)"><path fill="#292984" d="M0 0h345v233.094H0z"/><path d="M-41.895 4.591C-140.683-106-419 24-477-40.669l-11.409 371.079L909 169l-8-185C768 184 738.807 12.03 678 39c-43.789 19.422-59.417 35.549-170.826-47.951C347-129 309 23.999 213 105 108.233 193.397 7.294 59.658-41.895 4.591z" fill="url(#paint0_linear)"/><path d="M-421 84c151 83 174.536-127.788 306.001-40.257C-26 103 27.921 279.311 112 172 188 75 236-50 360.144 43.743 413.887 84.325 472 82 535-10c84.697-123.684 126 96.743 201 53.743" stroke="#373798" stroke-width="3"/><path d="M-422 92c158 110 168-62 291 7 92.674 51.988 164.92 196.311 248.999 89 76-97 136-158 242.145-104.257C409.999 108.987 475.671 130.912 549 53c96-102 125 107 230-40" stroke="#5454B0" stroke-width="3"/><path d="M-422 131.958c158 110 122-39 237 0 98.048 33.251 218.92 203.311 302.999 96C193.999 130.958 255 96.042 317 118c51.688 18.306 117.745 80.659 210 23 104-65 168 73.958 243 30.958" stroke="#1A1A6F" stroke-width="3"/><path d="M-421 70c151 83 174.537-197.531 306.001-110C-25.999 19.257 47.62 263.372 112 142 173 27 219.316-137.237 360.144-18 444 53 484 40 529-46c69.963-133.707 167 104 242 61" stroke="#262691" stroke-width="3"/></g><defs><linearGradient id="paint0_linear" x1="-179.076" y1="-19" x2="-232.721" y2="221.01" gradientUnits="userSpaceOnUse"><stop stop-color="#1F1F76"/><stop offset="1" stop-color="#1F1F76" stop-opacity="0"/></linearGradient><clipPath id="clip0"><path fill="#fff" d="M0 0h345v233.094H0z"/></clipPath></defs></svg>
